img/projector-icons/maximize.svg

<svg width="24" height="24" fill="none" xmlns="http://www.w3.org/2000/svg"><path d="M16.19 2H7.81C4.17 2 2 4.17 2 7.81v8.37C2 19.83 4.17 22 7.81 22h8.37c3.64 0 5.81-2.17 5.81-5.81V7.81C22 4.17 19.83 2 16.19 2zm2.56 8c0 .41-.34.75-.75.75s-.75-.34-.75-.75V7.81l-9.44 9.44H10c.41 0 .75.34.75.75s-.34.75-.75.75H6c-.1 0-.2-.02-.29-.06a.782.782 0 0 1-.41-.41.868.868 0 0 1-.05-.28v-4c0-.41.34-.75.75-.75s.75.34.75.75v2.19l9.44-9.44H14c-.41 0-.75-.34-.75-.75s.34-.75.75-.75h4c.1 0 .19.02.29.06.18.08.33.22.41.41.03.09.05.18.05.28v4z" fill="#52525A"/></svg>

<svg width="24" height="24" viewBox="0 0 24 24" fill="none" xmlns="http://www.w3.org/2000/svg">
<path d="M16.19 2H7.81C4.17 2 2 4.17 2 7.81V16.18C2 19.83 4.17 22 7.81 22H16.18C19.82 22 21.99 19.83 21.99 16.19V7.81C22 4.17 19.83 2 16.19 2ZM18.75 10C18.75 10.41 18.41 10.75 18 10.75C17.59 10.75 17.25 10.41 17.25 10V7.81L7.81 17.25H10C10.41 17.25 10.75 17.59 10.75 18C10.75 18.41 10.41 18.75 10 18.75H6C5.9 18.75 5.8 18.73 5.71 18.69C5.53 18.61 5.38 18.47 5.3 18.28C5.27 18.19 5.25 18.1 5.25 18V14C5.25 13.59 5.59 13.25 6 13.25C6.41 13.25 6.75 13.59 6.75 14V16.19L16.19 6.75H14C13.59 6.75 13.25 6.41 13.25 6C13.25 5.59 13.59 5.25 14 5.25H18C18.1 5.25 18.19 5.27 18.29 5.31C18.47 5.39 18.62 5.53 18.7 5.72C18.73 5.81 18.75 5.9 18.75 6V10Z" fill="#52525A"/>
</svg>
